svgs/sharp-light/wallet.svg

<svg xmlns="http://www.w3.org/2000/svg" viewBox="0 0 512 512"><!--! Font Awesome Pro 6.6.0 by @fontawesome - https://fontawesome.com License - https://fontawesome.com/license (Commercial License) Copyright 2024 Fonticons, Inc. --><path d="M16 32L0 32 0 48 0 464l0 16 16 0 480 0 16 0 0-16 0-352 0-16-16 0L112 96 96 96l0 32 16 0 368 0 0 320L32 448 32 64l432 0 16 0 0-32-16 0L16 32zM384 312a24 24 0 1 0 0-48 24 24 0 1 0 0 48z"/></svg>

<svg xmlns="http://www.w3.org/2000/svg" viewBox="0 0 512 512"><!--! Font Awesome Pro 6.4.0 by @fontawesome - https://fontawesome.com License - https://fontawesome.com/license (Commercial License) Copyright 2023 Fonticons, Inc. --><path d="M16 32H0V48 464v16H16 496h16V464 112 96H496 112 96v32h16H480V448H32V64H464h16V32H464 16zM384 312a24 24 0 1 0 0-48 24 24 0 1 0 0 48z"/></svg>
